X:205
T:Bab at the Bowster. RH.205
T:Country Bumpkin,aka. RH.205
T:Wooden Shoe Dance,aka. RH.205
R:jig
S:Rev.R.Harrison’s MS,c1815,Cumbria
O:England
A:Temple Sowerby,Cumbria
Z:vmp.Simon Wilson. Review PJH, 2008.
M:6/8
L:1/8
Q:3/8=120
K:G
A/B/|c3 B3|ABG F2D|GAG BGB|GAG BAB|!
c3 B3|ABA fef|g2d edc|B3 G2:|!
|:B|cd(e/f/) gdB|ABG F2D|G2c BAB|G2c BAB|!
cd(e/f/) gdB|ABG F2d|gfe dec|B3 G2:|!
|:A/B/|cAc BGB|ABG FED|GAG BAB|GAG BAB|!
cAc BGB|ABA fef|g2d edc|B3 G2:|

